9/img/svg/motel.svg

<svg width="40" height="40" viewBox="0 0 40 40" fill="none" xmlns="http://www.w3.org/2000/svg">
<path d="M15.9015 34.8041H24.2549V22.646H15.9015V34.8041ZM22.7408 33.3289H17.4155V24.1212H22.6886V33.3289H22.7408Z" fill="#81B3D2"/>
<path d="M38.4036 21.6278L39.5 20.5595L34.3313 15.5233V1.7882H27.1265V8.50314L19.9739 1.58472L0.5 20.6104L1.59639 21.6787L5.66867 17.7108V36.9399H3.63253V38.4152H36.994V36.9399H34.3313V17.6599L38.4036 21.6278ZM28.6406 3.31432H32.7651V14.0481L28.6406 10.0293V3.31432ZM32.8173 36.889H7.23494V16.1846L19.9739 3.72129L32.7651 16.1846V36.889H32.8173Z" fill="#81B3D2"/>
<path d="M16.0582 15.4216C16.0582 17.609 17.8855 19.3895 20.0783 19.3895C22.3233 19.3895 24.1506 17.609 24.1506 15.4216C24.1506 13.2341 22.3233 11.5045 20.0783 11.5045C17.8333 11.5045 16.0582 13.2341 16.0582 15.4216ZM20.0783 12.878C21.4879 12.878 22.6888 13.9972 22.6888 15.4216C22.6888 16.7951 21.5402 17.9651 20.0783 17.9651C18.6687 17.9651 17.4679 16.846 17.4679 15.4216C17.4679 14.0481 18.6687 12.878 20.0783 12.878Z" fill="#81B3D2"/>
<path d="M10.8895 22.646H9.32324V24.63H10.8895V22.646Z" fill="#81B3D2"/>
<path d="M13.9698 22.646H12.4036V24.63H13.9698V22.646Z" fill="#81B3D2"/>
<path d="M10.8895 25.6975H9.32324V27.6815H10.8895V25.6975Z" fill="#81B3D2"/>
<path d="M13.9698 25.6975H12.4036V27.6815H13.9698V25.6975Z" fill="#81B3D2"/>
<path d="M27.5443 22.646H25.978V24.63H27.5443V22.646Z" fill="#81B3D2"/>
<path d="M30.6769 22.646H29.1106V24.63H30.6769V22.646Z" fill="#81B3D2"/>
<path d="M27.5443 25.6975H25.978V27.6815H27.5443V25.6975Z" fill="#81B3D2"/>
<path d="M30.6769 25.6975H29.1106V27.6815H30.6769V25.6975Z" fill="#81B3D2"/>
</svg>

<svg width="40" height="40" fill="none" xmlns="http://www.w3.org/2000/svg"><path d="M15.902 34.804h8.353V22.646h-8.353v12.158Zm6.839-1.475h-5.325V24.12h5.273v9.208h.052Z" fill="#81B3D2"/><path d="m38.404 21.628 1.096-1.069-5.169-5.036V1.788h-7.205v6.715l-7.152-6.918L.5 20.61l1.096 1.069L5.67 17.71V36.94H3.633v1.475h33.361V36.94h-2.663V17.66l4.073 3.968ZM28.64 3.314h4.124v10.734l-4.124-4.019V3.314Zm4.176 33.575H7.235V16.185L19.974 3.72l12.791 12.464v20.704h.052Z" fill="#81B3D2"/><path d="M16.058 15.422c0 2.187 1.828 3.968 4.02 3.968 2.245 0 4.073-1.781 4.073-3.968 0-2.188-1.828-3.918-4.073-3.918s-4.02 1.73-4.02 3.918Zm4.02-2.544c1.41 0 2.61 1.12 2.61 2.544 0 1.373-1.148 2.543-2.61 2.543-1.41 0-2.61-1.119-2.61-2.543 0-1.374 1.2-2.544 2.61-2.544ZM10.89 22.646H9.322v1.984h1.566v-1.984ZM13.97 22.646h-1.566v1.984h1.566v-1.984ZM10.89 25.698H9.322v1.983h1.566v-1.983ZM13.97 25.698h-1.566v1.983h1.566v-1.983ZM27.544 22.646h-1.566v1.984h1.566v-1.984ZM30.677 22.646H29.11v1.984h1.566v-1.984ZM27.544 25.698h-1.566v1.983h1.566v-1.983ZM30.677 25.698H29.11v1.983h1.566v-1.983Z" fill="#81B3D2"/></svg>
